X:539
T: MIT MEINEM GOTT GEH ICH ZUR RUH
N: F1046
O: Europa, Mitteleuropa, Deutschland
R: Trost - Lied, religioes
M: 4/4
L: 1/8
K: Ab
E2 | E2E2F3F | G2G2A3
A | c2BAG3G | A2GFC2z
C | D3DE3E | F4F4
E2FGA3E | E2FGA3
A | d2c2B2AF | E2D2C3
C | D2FBd2cA | c6B2 | A6

